X: 47
T:Spey in Spate
R:Reel
C:J. Scott Skinner
Z:added by Alf Warnock
M:4/4
L:1/8
K:D
A,2|D/2D/2DFD A,DFA|dcBA ^GAFD|E/2E/2E=GE B,EGE|gecA ^GA=GE|
D/2D/2DFD A,DFA|dDcD BDef|g/2f/2efd ecdB|AFGE D2:|
A,2|d/2d/2dfd AdFA|DFAd fagf|e/2e/2ege BAGF|EFGB egfe|
d/2d/2dfd AFFA|dDcD BDef|g/2f/2efd ecdB|AFGE D2:|

